X:14693
T:Ro Verde
C:trad
Z:Mtodu de Gaita
M:3/8
L:1/8
Q:1/4=160
K:D
 |: F2 E | D2 D | DCD | E3 | A2 G | F2 E | GFE | D3 :|
 | F2 E | D2 D | DCD | E3 | A2 G | F2 E | GFE | D2 D |
 |: DFE | D2 D | DCD | E2 E | EAG | FGF | EFE | D2 D :|
 | DFE | D2 D | DCD | E2 E | EAG | FGF | EFE | D3 |
